X:14
T: ES STEHEN DREI STERNE AM HIMMEL
N: Z0015
O: Europa, Mitteleuropa, Elsass
R: Sagen - Lied, Romanze, falsche Liebe, Tod
M: 6/8
L: 1/16
K: G
D2 | G2D2G2B2G2B2 | d3edcB2z2
Bc | d3ed2d2c2c2 | B6z4
Bc | d2B2d2e2d2c2 | B6A2z4
B6c2d2e2 | d3edcB4
c2 | d3ed2d2c2c2 | B6z4

